images/warning.svg

<svg width="16" height="16" viewBox="0 0 16 16" fill="none" xmlns="http://www.w3.org/2000/svg">
<g clip-path="url(#clip0_15_2)">
<path fill-rule="evenodd" clip-rule="evenodd" d="M8.095 1.99999C8.343 1.99999 8.577 2.06499 8.789 2.19199C8.958 2.29299 9.099 2.42499 9.209 2.58499L9.287 2.71099L14.354 12L14.39 12.07C14.589 12.485 14.565 12.925 14.328 13.329C14.208 13.534 14.041 13.699 13.834 13.818C13.667 13.914 13.488 13.972 13.3 13.992L13.157 13.999H3.015L2.933 13.995C2.729 13.981 2.535 13.921 2.357 13.818C2.15 13.698 1.983 13.534 1.863 13.329C1.637 12.943 1.606 12.528 1.771 12.136L1.842 11.99L6.914 2.69199L6.958 2.61999C7.072 2.44399 7.221 2.29999 7.401 2.19099C7.614 2.06399 7.848 1.99899 8.095 1.99899V1.99999ZM8.095 3.03199C8.035 3.03199 7.985 3.04599 7.933 3.07699C7.903 3.09599 7.877 3.11699 7.858 3.13699L7.834 3.16499L7.81 3.20499L2.746 12.489C2.682 12.605 2.683 12.687 2.754 12.808C2.783 12.858 2.82 12.895 2.873 12.925C2.902 12.942 2.931 12.953 2.955 12.96L2.989 12.966L3.033 12.968H13.157C13.217 12.968 13.267 12.954 13.318 12.925C13.371 12.895 13.408 12.857 13.438 12.807C13.49 12.717 13.503 12.65 13.485 12.582L13.466 12.531L13.443 12.485L8.381 3.20499C8.351 3.14999 8.311 3.10899 8.258 3.07699C8.207 3.04699 8.156 3.03199 8.095 3.03199V3.03199ZM7.99 10.581C8.346 10.581 8.635 10.869 8.635 11.226C8.635 11.582 8.345 11.871 7.99 11.871C7.633 11.871 7.344 11.582 7.344 11.226C7.344 10.869 7.634 10.581 7.99 10.581ZM7.99 5.79599C8.243 5.79599 8.454 5.97799 8.497 6.21899L8.506 6.31199V9.18999L8.504 9.23699C8.48 9.49999 8.259 9.70699 7.99 9.70699C7.736 9.70699 7.525 9.52399 7.482 9.28299L7.473 9.18999V6.31199L7.475 6.26499C7.499 6.00199 7.72 5.79499 7.99 5.79499V5.79599Z" fill="#806D16"/>
</g>
<defs>
<clipPath id="clip0_15_2">
<rect width="16" height="16" fill="white"/>
</clipPath>
</defs>
</svg>

<svg xmlns="http://www.w3.org/2000/svg" width="16" height="16" viewBox="0 0 16 16">
    <g fill="none" fill-rule="evenodd">
        <path fill="#D8D8D8" fill-opacity="0" d="M0 0H16V16H0z"/>
        <path fill="#26344A" d="M8.095 2c.248 0 .482.065.694.192.169.101.31.233.42.393l.078.126L14.354 12l.036.07c.199.415.175.855-.062 1.259-.12.205-.287.37-.494.489-.167.096-.346.154-.534.174l-.143.007H3.015l-.082-.004c-.204-.014-.398-.074-.576-.177-.207-.12-.374-.284-.494-.489-.226-.386-.257-.801-.092-1.193l.071-.146 5.072-9.298.044-.072c.114-.176.263-.32.443-.429.213-.127.447-.192.694-.192zm0 1.032c-.06 0-.11.014-.162.045-.03.019-.056.04-.075.06l-.024.028-.024.04-5.064 9.284c-.064.116-.063.198.008.319.029.05.066.087.119.117.029.017.058.028.082.035l.034.006.044.002h10.124c.06 0 .11-.014.161-.043.053-.03.09-.068.12-.118.052-.09.065-.157.047-.225l-.019-.051-.023-.046-5.062-9.28c-.03-.055-.07-.096-.123-.128-.051-.03-.102-.045-.163-.045zm-.105 7.549c.356 0 .645.288.645.645 0 .356-.29.645-.645.645-.357 0-.646-.289-.646-.645 0-.357.29-.645.646-.645zm0-4.785c.253 0 .464.182.507.423l.009.093V9.19l-.002.047c-.024.263-.245.47-.514.47-.254 0-.465-.183-.508-.424l-.009-.093V6.312l.002-.047c.024-.263.245-.47.515-.47z"/>
    </g>
</svg>
